;FLAVOR:Marlin
;TIME:3410
;Filament used: 3.16649m
;Layer height: 0.15
;MINX:32.407
;MINY:71.91
;MINZ:0.3
;MAXX:187.593
;MAXY:148.09
;MAXZ:4.2
;Generated with Cura_SteamEngine 4.3.0
M140 S40
M105
M190 S40
M104 S200
M105
M109 S200
M82 ;absolute extrusion mode
G21 ;metric values
G90 ;absolute positioning
M82 ;set extruder to absolute mode
M107 ;start with the fan off
G28 X0 Y0 ;move X/Y to min endstops
G28 Z0 ;move Z to min endstops
M84 ;steppers off
M0 S12 ;wait 12 seconds
M17 ;turn steppers on
G1 Z10.0 F300 ;move the platform down 10mm
G92 E0 ;zero the extruded length
G1 F200 E8 ;extrude 8mm of feed stock
G92 E0 ;zero the extruded length again
M0 S5 ;wait 5 seconds
G1 F9000
M117 Printing...
G92 E0
G92 E0
G1 F1500 E-6.5
;LAYER_COUNT:27
;LAYER:0
M107
G0 F3600 X44.457 Y75.568 Z0.3
;TYPE:SKIRT
G1 F1500 E0
G1 F1800 X45.379 Y75.033 E0.05318
G1 X45.817 Y74.797 E0.078
G1 X46.773 Y74.321 E0.13128
G1 X47.199 Y74.125 E0.15468
G1 X48.18 Y73.708 E0.20786
G1 X48.627 Y73.534 E0.23179
G1 X49.632 Y73.178 E0.28498
G1 X50.09 Y73.031 E0.30898
G1 X51.114 Y72.738 E0.36212
G1 X51.587 Y72.618 E0.38646
G1 X52.63 Y72.389 E0.43974
G1 X53.097 Y72.302 E0.46344
G1 X54.151 Y72.137 E0.51666
G1 X54.626 Y72.077 E0.54055
G1 X55.688 Y71.977 E0.59377
G1 X56.177 Y71.947 E0.61821
G1 X57.242 Y71.914 E0.67137
G1 X57.484 Y71.91 E0.68344
G1 X147.499 Y71.91 E5.17431
G1 X147.729 Y71.913 E5.18579
G1 X148.745 Y71.943 E5.2365
G1 X149.217 Y71.972 E5.26009
G1 X150.279 Y72.068 E5.31329
G1 X150.745 Y72.124 E5.3367
G1 X151.801 Y72.284 E5.38999
G1 X152.285 Y72.373 E5.41454
G1 X153.328 Y72.599 E5.46778
G1 X153.786 Y72.713 E5.49133
G1 X154.811 Y73.001 E5.54445
G1 X155.277 Y73.148 E5.56883
G1 X156.283 Y73.5 E5.622
G1 X156.734 Y73.674 E5.64612
G1 X157.717 Y74.088 E5.69933
G1 X158.143 Y74.282 E5.72268
G1 X159.101 Y74.755 E5.77599
G1 X159.538 Y74.988 E5.80069
G1 X160.461 Y75.519 E5.85382
G1 X160.859 Y75.764 E5.87714
G1 X161.751 Y76.351 E5.93041
G1 X162.148 Y76.631 E5.95465
G1 X163 Y77.271 E6.00781
G1 X163.382 Y77.577 E6.03223
G1 X164.192 Y78.269 E6.08538
G1 X164.537 Y78.582 E6.10862
G1 X165.306 Y79.323 E6.1619
G1 X165.653 Y79.679 E6.1867
G1 X166.372 Y80.466 E6.23988
G1 X166.679 Y80.823 E6.26337
G1 X167.35 Y81.653 E6.31662
G1 X167.64 Y82.036 E6.34059
G1 X168.258 Y82.905 E6.39379
G1 X168.525 Y83.306 E6.41782
G1 X169.088 Y84.211 E6.471
G1 X169.223 Y84.436 E6.48409
G1 X169.722 Y85.302 E6.53395
G1 X184.236 Y110.439 E7.98208
G1 X184.35 Y110.644 E7.99378
G1 X184.833 Y111.542 E8.04465
G1 X185.041 Y111.958 E8.06786
G1 X185.489 Y112.925 E8.12103
G1 X185.676 Y113.361 E8.1447
G1 X186.065 Y114.355 E8.19795
G1 X186.227 Y114.813 E8.22219
G1 X186.553 Y115.828 E8.27537
G1 X186.686 Y116.29 E8.29936
G1 X186.949 Y117.324 E8.35259
G1 X187.054 Y117.799 E8.37686
G1 X187.252 Y118.847 E8.43007
G1 X187.326 Y119.314 E8.45366
G1 X187.46 Y120.371 E8.50681
G1 X187.506 Y120.855 E8.53107
G1 X187.574 Y121.92 E8.58431
G1 X187.59 Y122.395 E8.60802
G1 X187.593 Y123.462 E8.66125
G1 X187.579 Y123.952 E8.68571
G1 X187.515 Y125.017 E8.73894
G1 X187.472 Y125.494 E8.76283
G1 X187.343 Y126.551 E8.81596
G1 X187.27 Y127.024 E8.83984
G1 X187.076 Y128.073 E8.89306
G1 X186.976 Y128.535 E8.91664
G1 X186.719 Y129.57 E8.96985
G1 X186.587 Y130.038 E8.9941
G1 X186.266 Y131.055 E9.04731
G1 X186.107 Y131.51 E9.07136
G1 X185.723 Y132.507 E9.12466
G1 X185.534 Y132.956 E9.14896
G1 X185.09 Y133.924 E9.20209
G1 X184.88 Y134.346 E9.22561
G1 X184.378 Y135.286 E9.27878
G1 X184.138 Y135.704 E9.30282
G1 X183.579 Y136.611 E9.35598
G1 X183.313 Y137.015 E9.38011
G1 X182.698 Y137.887 E9.43335
G1 X182.409 Y138.271 E9.45732
G1 X181.741 Y139.104 E9.51059
G1 X181.429 Y139.47 E9.53459
G1 X180.712 Y140.259 E9.58778
G1 X180.381 Y140.601 E9.61152
G1 X179.618 Y141.344 E9.66465
G1 X179.259 Y141.673 E9.68895
G1 X178.45 Y142.368 E9.74216
G1 X178.077 Y142.668 E9.76604
G1 X177.227 Y143.312 E9.81924
G1 X176.835 Y143.591 E9.84325
G1 X175.946 Y144.182 E9.89651
G1 X175.543 Y144.432 E9.92017
G1 X174.621 Y144.967 E9.97335
G1 X174.183 Y145.203 E9.99817
G1 X173.227 Y145.679 E10.05145
G1 X172.801 Y145.875 E10.07485
G1 X171.82 Y146.292 E10.12803
G1 X171.373 Y146.466 E10.15196
G1 X170.368 Y146.822 E10.20515
G1 X169.91 Y146.969 E10.22915
G1 X168.886 Y147.262 E10.28229
G1 X168.413 Y147.382 E10.30663
G1 X167.37 Y147.611 E10.35991
G1 X166.903 Y147.698 E10.38361
G1 X165.849 Y147.863 E10.43683
G1 X165.374 Y147.923 E10.46072
G1 X164.312 Y148.023 E10.51393
G1 X163.823 Y148.053 E10.53838
G1 X162.758 Y148.086 E10.59153
G1 X162.516 Y148.09 E10.60361
G1 X72.501 Y148.09 E15.09448
G1 X72.271 Y148.087 E15.10595
G1 X71.255 Y148.057 E15.15666
G1 X70.783 Y148.028 E15.18026
G1 X69.721 Y147.932 E15.23345
G1 X69.255 Y147.876 E15.25687
G1 X68.199 Y147.716 E15.31016
G1 X67.715 Y147.627 E15.33471
G1 X66.672 Y147.401 E15.38795
G1 X66.214 Y147.287 E15.4115
G1 X65.189 Y146.999 E15.46462
G1 X64.723 Y146.852 E15.48899
G1 X63.717 Y146.5 E15.54217
G1 X63.266 Y146.326 E15.56628
G1 X62.283 Y145.912 E15.6195
G1 X61.857 Y145.718 E15.64285
G1 X60.899 Y145.245 E15.69615
G1 X60.462 Y145.012 E15.72086
G1 X59.539 Y144.481 E15.77399
G1 X59.141 Y144.236 E15.7973
G1 X58.249 Y143.649 E15.85058
G1 X57.851 Y143.369 E15.87486
G1 X56.998 Y142.728 E15.92809
G1 X56.617 Y142.422 E15.95247
G1 X55.807 Y141.73 E16.00562
G1 X55.462 Y141.417 E16.02886
G1 X54.694 Y140.677 E16.08207
G1 X54.348 Y140.321 E16.10683
G1 X53.628 Y139.533 E16.16009
G1 X53.32 Y139.175 E16.18365
G1 X52.65 Y138.346 E16.23683
G1 X52.36 Y137.965 E16.26071
G1 X51.741 Y137.095 E16.31398
G1 X51.473 Y136.691 E16.33817
G1 X50.911 Y135.787 E16.39128
G1 X50.777 Y135.564 E16.40426
G1 X50.275 Y134.693 E16.45441
G1 X35.763 Y109.559 E17.90236
G1 X35.649 Y109.354 E17.91406
G1 X35.167 Y108.458 E17.96482
G1 X34.959 Y108.042 E17.98802
G1 X34.511 Y107.075 E18.04119
G1 X34.323 Y106.636 E18.06502
G1 X33.934 Y105.641 E18.11832
G1 X33.773 Y105.186 E18.1424
G1 X33.447 Y104.171 E18.19558
G1 X33.314 Y103.71 E18.21952
G1 X33.051 Y102.677 E18.2727
G1 X32.945 Y102.2 E18.29708
G1 X32.747 Y101.151 E18.35034
G1 X32.674 Y100.684 E18.37392
G1 X32.54 Y99.626 E18.42713
G1 X32.494 Y99.144 E18.45128
G1 X32.426 Y98.081 E18.50443
G1 X32.41 Y97.605 E18.52819
G1 X32.407 Y96.538 E18.58142
G1 X32.421 Y96.048 E18.60588
G1 X32.485 Y94.983 E18.6591
G1 X32.528 Y94.506 E18.683
G1 X32.657 Y93.449 E18.73612
G1 X32.73 Y92.976 E18.76
G1 X32.924 Y91.927 E18.81322
G1 X33.024 Y91.465 E18.83681
G1 X33.281 Y90.43 E18.89001
G1 X33.413 Y89.962 E18.91427
G1 X33.734 Y88.945 E18.96748
G1 X33.893 Y88.49 E18.99152
G1 X34.277 Y87.493 E19.04482
G1 X34.466 Y87.044 E19.06913
G1 X34.91 Y86.076 E19.12226
G1 X35.12 Y85.654 E19.14578
G1 X35.622 Y84.714 E19.19894
G1 X35.862 Y84.296 E19.22299
G1 X36.421 Y83.389 E19.27614
G1 X36.687 Y82.985 E19.30028
G1 X37.302 Y82.113 E19.35351
G1 X37.591 Y81.729 E19.37749
G1 X38.259 Y80.896 E19.43076
G1 X38.571 Y80.53 E19.45475
G1 X39.288 Y79.741 E19.50794
G1 X39.619 Y79.399 E19.53169
G1 X40.382 Y78.656 E19.58482
G1 X40.741 Y78.327 E19.60911
G1 X41.55 Y77.632 E19.66232
G1 X41.923 Y77.332 E19.68621
G1 X42.773 Y76.688 E19.73941
G1 X43.165 Y76.409 E19.76341
G1 X44.054 Y75.818 E19.81667
G1 X44.457 Y75.568 E19.84033
G0 F3600 X44.658 Y75.913
G1 F1800 X45.58 Y75.378 E19.89352
G1 X45.996 Y75.155 E19.91706
G1 X46.952 Y74.679 E19.97034
G1 X47.355 Y74.493 E19.99249
G1 X48.336 Y74.076 E20.04567
G1 X48.76 Y73.911 E20.06837
G1 X49.765 Y73.555 E20.12156
G1 X50.2 Y73.416 E20.14434
G1 X51.224 Y73.123 E20.19748
G1 X51.673 Y73.009 E20.22059
G1 X52.716 Y72.78 E20.27387
G1 X53.158 Y72.697 E20.2963
G1 X54.212 Y72.532 E20.34953
G1 X54.663 Y72.476 E20.3722
G1 X55.725 Y72.376 E20.42542
G1 X56.19 Y72.347 E20.44866
G1 X57.255 Y72.314 E20.50182
G1 X57.484 Y72.31 E20.51325
G1 X147.499 Y72.31 E25.00411
G1 X147.717 Y72.313 E25.01499
G1 X148.733 Y72.343 E25.0657
G1 X149.181 Y72.37 E25.08809
G1 X150.243 Y72.466 E25.14129
G1 X150.686 Y72.52 E25.16356
G1 X151.742 Y72.68 E25.21684
G1 X152.2 Y72.764 E25.24007
G1 X153.243 Y72.99 E25.29332
G1 X153.678 Y73.098 E25.31568
G1 X154.703 Y73.386 E25.3688
G1 X155.145 Y73.525 E25.39191
G1 X156.151 Y73.877 E25.44509
G1 X156.579 Y74.042 E25.46797
G1 X157.562 Y74.456 E25.52118
G1 X157.966 Y74.641 E25.54335
G1 X158.924 Y75.114 E25.59666
G1 X159.338 Y75.335 E25.62007
G1 X160.261 Y75.866 E25.67319
G1 X160.639 Y76.098 E25.69532
G1 X161.531 Y76.685 E25.7486
G1 X161.907 Y76.95 E25.77154
G1 X162.759 Y77.59 E25.82471
G1 X163.122 Y77.881 E25.84792
G1 X163.932 Y78.573 E25.90107
G1 X164.26 Y78.87 E25.92314
G1 X165.029 Y79.611 E25.97642
G1 X165.357 Y79.949 E25.99992
G1 X166.076 Y80.736 E26.0531
G1 X166.368 Y81.075 E26.07542
G1 X167.039 Y81.905 E26.12867
G1 X167.315 Y82.268 E26.15142
G1 X167.933 Y83.137 E26.20462
G1 X168.185 Y83.517 E26.22737
G1 X168.748 Y84.422 E26.28055
G1 X168.876 Y84.636 E26.29299
G1 X169.375 Y85.502 E26.34285
G1 X183.889 Y110.639 E27.79098
G1 X183.998 Y110.834 E27.80212
G1 X184.481 Y111.732 E27.85299
G1 X184.678 Y112.126 E27.87497
G1 X185.126 Y113.093 E27.92814
G1 X185.303 Y113.507 E27.9506
G1 X185.692 Y114.501 E28.00386
G1 X185.847 Y114.935 E28.02685
G1 X186.173 Y115.95 E28.08003
G1 X186.299 Y116.389 E28.10282
G1 X186.562 Y117.423 E28.15605
G1 X186.661 Y117.873 E28.17904
G1 X186.859 Y118.921 E28.23225
G1 X186.929 Y119.364 E28.25462
G1 X187.063 Y120.421 E28.30778
G1 X187.107 Y120.88 E28.33078
G1 X187.175 Y121.945 E28.38402
G1 X187.19 Y122.396 E28.40654
G1 X187.193 Y123.463 E28.45977
G1 X187.18 Y123.928 E28.48298
G1 X187.116 Y124.993 E28.53621
G1 X187.074 Y125.445 E28.55886
G1 X186.945 Y126.502 E28.61198
G1 X186.877 Y126.952 E28.63469
G1 X186.683 Y128.001 E28.68791
G1 X186.588 Y128.438 E28.71022
G1 X186.331 Y129.473 E28.76342
G1 X186.206 Y129.917 E28.78644
G1 X185.885 Y130.934 E28.83964
G1 X185.734 Y131.367 E28.86252
G1 X185.35 Y132.364 E28.91582
G1 X185.17 Y132.789 E28.93885
G1 X184.726 Y133.757 E28.99198
G1 X184.527 Y134.158 E29.01431
G1 X184.025 Y135.098 E29.06748
G1 X183.798 Y135.495 E29.0903
G1 X183.239 Y136.402 E29.14345
G1 X182.986 Y136.784 E29.16631
G1 X182.371 Y137.656 E29.21954
G1 X182.097 Y138.021 E29.24231
G1 X181.429 Y138.854 E29.29559
G1 X181.132 Y139.201 E29.31837
G1 X180.415 Y139.99 E29.37156
G1 X180.102 Y140.315 E29.39407
G1 X179.339 Y141.058 E29.44721
G1 X178.998 Y141.369 E29.47023
G1 X178.189 Y142.064 E29.52344
G1 X177.836 Y142.349 E29.54608
G1 X176.986 Y142.993 E29.59928
G1 X176.614 Y143.257 E29.62204
G1 X175.725 Y143.848 E29.6753
G1 X175.342 Y144.087 E29.69782
G1 X174.42 Y144.622 E29.751
G1 X174.004 Y144.845 E29.77455
G1 X173.048 Y145.321 E29.82783
G1 X172.645 Y145.507 E29.84997
G1 X171.664 Y145.924 E29.90315
G1 X171.24 Y146.089 E29.92585
G1 X170.235 Y146.445 E29.97904
G1 X169.8 Y146.584 E30.00183
G1 X168.776 Y146.877 E30.05497
G1 X168.327 Y146.991 E30.07808
G1 X167.284 Y147.22 E30.13135
G1 X166.842 Y147.303 E30.15379
G1 X165.788 Y147.468 E30.20701
G1 X165.337 Y147.524 E30.22969
G1 X164.275 Y147.624 E30.2829
G1 X163.81 Y147.653 E30.30615
G1 X162.745 Y147.686 E30.35931
G1 X162.516 Y147.69 E30.37073
G1 X72.501 Y147.69 E34.8616
G1 X72.283 Y147.687 E34.87248
G1 X71.267 Y147.657 E34.92319
G1 X70.819 Y147.63 E34.94558
G1 X69.757 Y147.534 E34.99878
G1 X69.314 Y147.48 E35.02104
G1 X68.258 Y147.32 E35.07433
G1 X67.8 Y147.236 E35.09756
G1 X66.757 Y147.01 E35.1508
G1 X66.322 Y146.902 E35.17316
G1 X65.297 Y146.614 E35.22628
G1 X64.855 Y146.475 E35.2494
G1 X63.849 Y146.123 E35.30257
G1 X63.421 Y145.958 E35.32546
G1 X62.438 Y145.544 E35.37867
G1 X62.034 Y145.359 E35.40084
G1 X61.076 Y144.886 E35.45414
G1 X60.662 Y144.665 E35.47755
G1 X59.739 Y144.134 E35.53068
G1 X59.361 Y143.902 E35.55281
G1 X58.469 Y143.315 E35.60608
G1 X58.091 Y143.049 E35.62914
G1 X57.238 Y142.408 E35.68237
G1 X56.877 Y142.118 E35.70548
G1 X56.067 Y141.426 E35.75863
G1 X55.739 Y141.129 E35.7807
G1 X54.971 Y140.389 E35.83391
G1 X54.643 Y140.052 E35.85737
G1 X53.923 Y139.264 E35.91062
G1 X53.631 Y138.923 E35.93302
G1 X52.961 Y138.094 E35.9862
G1 X52.686 Y137.733 E36.00884
G1 X52.067 Y136.863 E36.06211
G1 X51.812 Y136.48 E36.08507
G1 X51.25 Y135.576 E36.13817
G1 X51.124 Y135.364 E36.15048
G1 X50.622 Y134.493 E36.20063
G1 X36.11 Y109.359 E37.64858
G1 X36.001 Y109.165 E37.65968
G1 X35.519 Y108.269 E37.71044
G1 X35.322 Y107.874 E37.73246
G1 X34.874 Y106.907 E37.78563
G1 X34.696 Y106.49 E37.80825
G1 X34.307 Y105.495 E37.86155
G1 X34.153 Y105.064 E37.88438
G1 X33.827 Y104.049 E37.93757
G1 X33.702 Y103.612 E37.96025
G1 X33.439 Y102.579 E38.01343
G1 X33.338 Y102.126 E38.03658
G1 X33.14 Y101.077 E38.08984
G1 X33.071 Y100.634 E38.11221
G1 X32.937 Y99.576 E38.16541
G1 X32.893 Y99.118 E38.18837
G1 X32.825 Y98.055 E38.24151
G1 X32.81 Y97.604 E38.26402
G1 X32.807 Y96.537 E38.31726
G1 X32.82 Y96.072 E38.34047
G1 X32.884 Y95.007 E38.39369
G1 X32.926 Y94.555 E38.41634
G1 X33.055 Y93.498 E38.46947
G1 X33.123 Y93.048 E38.49217
G1 X33.317 Y91.999 E38.54539
G1 X33.412 Y91.562 E38.56771
G1 X33.669 Y90.527 E38.62091
G1 X33.794 Y90.083 E38.64392
G1 X34.115 Y89.066 E38.69713
G1 X34.266 Y88.633 E38.72001
G1 X34.65 Y87.636 E38.77331
G1 X34.83 Y87.211 E38.79634
G1 X35.274 Y86.243 E38.84947
G1 X35.473 Y85.842 E38.8718
G1 X35.975 Y84.902 E38.92497
G1 X36.202 Y84.505 E38.94778
G1 X36.761 Y83.598 E39.00094
G1 X37.014 Y83.216 E39.0238
G1 X37.629 Y82.344 E39.07703
G1 X37.903 Y81.979 E39.0998
G1 X38.571 Y81.146 E39.15307
G1 X38.868 Y80.799 E39.17586
G1 X39.585 Y80.01 E39.22905
G1 X39.898 Y79.685 E39.25156
G1 X40.661 Y78.942 E39.30469
G1 X41.002 Y78.631 E39.32772
G1 X41.811 Y77.936 E39.38093
G1 X42.164 Y77.651 E39.40356
G1 X43.014 Y77.007 E39.45677
G1 X43.386 Y76.743 E39.47952
G1 X44.275 Y76.152 E39.53278
G1 X44.658 Y75.913 E39.55531
G0 F3600 X44.859 Y76.259
G1 F1800 X45.781 Y75.724 E39.60849
G1 X46.174 Y75.513 E39.63074
G1 X47.13 Y75.037 E39.68402
G1 X47.512 Y74.861 E39.705
G1 X48.493 Y74.444 E39.75819
G1 X48.894 Y74.288 E39.77965
G1 X49.899 Y73.932 E39.83284
G1 X50.31 Y73.8 E39.85438
G1 X51.334 Y73.507 E39.90752
G1 X51.759 Y73.4 E39.92938
G1 X52.802 Y73.171 E39.98266
G1 X53.22 Y73.092 E40.00388
G1 X54.274 Y72.927 E40.05711
G1 X54.701 Y72.874 E40.07857
G1 X55.763 Y72.774 E40.13179
G1 X56.202 Y72.746 E40.15374
G1 X57.267 Y72.713 E40.2069
G1 X57.484 Y72.71 E40.21772
G1 X147.499 Y72.71 E44.70859
G1 X147.706 Y72.713 E44.71892
G1 X148.722 Y72.743 E44.76963
G1 X149.145 Y72.768 E44.79077
G1 X150.207 Y72.864 E44.84397
G1 X150.626 Y72.915 E44.86503
G1 X151.682 Y73.075 E44.91831
G1 X152.115 Y73.155 E44.94028
G1 X153.158 Y73.381 E44.99352
G1 X153.57 Y73.483 E45.0147
G1 X154.595 Y73.771 E45.06782
G1 X155.013 Y73.903 E45.08969
G1 X156.019 Y74.255 E45.14286
G1 X156.424 Y74.411 E45.16451
G1 X157.407 Y74.825 E45.21772
G1 X157.789 Y74.999 E45.23867
G1 X158.747 Y75.472 E45.29197
G1 X159.139 Y75.681 E45.31413
G1 X160.062 Y76.212 E45.36726
G1 X160.419 Y76.433 E45.38821
G1 X161.311 Y77.02 E45.44148
G1 X161.667 Y77.27 E45.46318
G1 X162.519 Y77.91 E45.51635
G1 X162.862 Y78.185 E45.53828
G1 X163.672 Y78.877 E45.59143
G1 X163.982 Y79.158 E45.6123
G1 X164.751 Y79.899 E45.66558
G1 X165.062 Y80.219 E45.68784
G1 X165.781 Y81.006 E45.74103
G1 X166.057 Y81.326 E45.76211
G1 X166.728 Y82.156 E45.81536
G1 X166.989 Y82.5 E45.8369
G1 X167.607 Y83.369 E45.8901
G1 X167.846 Y83.728 E45.91162
G1 X168.409 Y84.633 E45.96479
G1 X168.53 Y84.836 E45.97658
G1 X169.029 Y85.702 E46.02645
G1 X183.543 Y110.839 E47.47457
G1 X183.646 Y111.023 E47.48509
G1 X184.129 Y111.921 E47.53596
G1 X184.315 Y112.294 E47.55676
G1 X184.763 Y113.261 E47.60993
G1 X184.931 Y113.653 E47.63121
G1 X185.32 Y114.647 E47.68446
G1 X185.466 Y115.057 E47.70617
G1 X185.792 Y116.072 E47.75936
G1 X185.911 Y116.487 E47.7809
G1 X186.174 Y117.521 E47.83413
G1 X186.268 Y117.947 E47.85589
G1 X186.466 Y118.995 E47.9091
G1 X186.532 Y119.415 E47.93031
G1 X186.666 Y120.472 E47.98347
G1 X186.708 Y120.906 E48.00522
G1 X186.776 Y121.971 E48.05846
G1 X186.79 Y122.397 E48.07973
G1 X186.793 Y123.464 E48.13296
G1 X186.78 Y123.904 E48.15492
G1 X186.716 Y124.969 E48.20815
G1 X186.677 Y125.397 E48.22959
G1 X186.548 Y126.454 E48.28272
G1 X186.483 Y126.879 E48.30417
G1 X186.289 Y127.928 E48.35739
G1 X186.2 Y128.342 E48.37851
G1 X185.943 Y129.377 E48.43172
G1 X185.824 Y129.797 E48.4535
G1 X185.503 Y130.814 E48.5067
